X:295
T:Tom Billy's*  
B:CRE2.048 (gan ainm)
F:file ID: cre.2/295tom_b
Q:160
L:1/8
M:6/8
R:jig
K:G
"A modal"
efg|:aga ece|edB BAB|eaa ece|dcB Ace|
"5"a3 ece|edB BAB|GBd gfe|fdB Ace:|
"9"g3 a3|bag fed|faf gfe|fdB def|gfg aa/g/a|
"13"bge gab|age dBe|1 AB/c/A ABA:|2 Ac/B/A ag/e/d||
"17"|:c3 edf|ecA dBA|ABA cBA|ABA ag/e/d|ccc edf|
"21"ede gab|age dBd|1 AcA ag/e/d:|\
[2 A2 (3c/B/A/ Ace||"final"A6|]


%%%

